storage/app/icons/phosphoricons/light/frame-corners-light.svg

<svg xmlns="http://www.w3.org/2000/svg" fill="currentColor" viewBox="0 0 256 256"><path d="M198 80v32a6 6 0 0 1-12 0V86h-26a6 6 0 0 1 0-12h32a6 6 0 0 1 6 6M96 170H70v-26a6 6 0 0 0-12 0v32a6 6 0 0 0 6 6h32a6 6 0 0 0 0-12M230 56v144a14 14 0 0 1-14 14H40a14 14 0 0 1-14-14V56a14 14 0 0 1 14-14h176a14 14 0 0 1 14 14m-12 0a2 2 0 0 0-2-2H40a2 2 0 0 0-2 2v144a2 2 0 0 0 2 2h176a2 2 0 0 0 2-2Z"/></svg>

<svg xmlns="http://www.w3.org/2000/svg" viewBox="0 0 256 256" fill="currentColor"><path d="M198,80v32a6,6,0,0,1-12,0V86H160a6,6,0,0,1,0-12h32A6,6,0,0,1,198,80ZM96,170H70V144a6,6,0,0,0-12,0v32a6,6,0,0,0,6,6H96a6,6,0,0,0,0-12ZM230,56V200a14,14,0,0,1-14,14H40a14,14,0,0,1-14-14V56A14,14,0,0,1,40,42H216A14,14,0,0,1,230,56Zm-12,0a2,2,0,0,0-2-2H40a2,2,0,0,0-2,2V200a2,2,0,0,0,2,2H216a2,2,0,0,0,2-2Z"/></svg>
